X:20
T:Swallowtail Jig
C:Traditional
R:Jig
M:6/8
L:1/8
K:Amix
F|:"Em"GEE BEE|GEE BAG|"D"FDD ADD|dcd AGF|
"Em"GEE BEE|GEE B2c|"D"dcd AGF|1"Em"GEE E2F:|2GEE E3||
|:"Em"Bcd e2f|e2f edB|Bcd e2f|edB"D"d3|
"Em"Bcd e2f|e2f edc|"D"dcd AGF|"Em"GEE E3:|
